Obsidian/actions/22s/format-font-size-more.svg

<svg height="22" viewBox="0 0 22 22" width="22" xmlns="http://www.w3.org/2000/svg"><path d="m12.5.09375-.207031.20703125-3.292969 3.29296875.7070312.7070312 2.2929688-2.2929687v4.2929687h1v-4.2929687l2.292969 2.2929687.707031-.7070312-3.292969-3.29296875zm-6.5.90625-5 14h2.5l1.0625-3h4.875l1.0625 3h2.78125l-5.28125-14zm1 4 1.75 5h-3.5z" fill="#bebebe" transform="translate(3 3)"/></svg>

<svg xmlns="http://www.w3.org/2000/svg" width="22" height="22" viewBox="0 0 22 22">
 <defs>
  <style id="current-color-scheme" type="text/css">
   .ColorScheme-Text { color:#bebebe; } .ColorScheme-Highlight { color:#4285f4; }
  </style>
 </defs>
 <path style="fill:currentColor" class="ColorScheme-Text" d="M 12.5 0.09375 L 12.292969 0.30078125 L 9 3.59375 L 9.7070312 4.3007812 L 12 2.0078125 L 12 6.3007812 L 13 6.3007812 L 13 2.0078125 L 15.292969 4.3007812 L 16 3.59375 L 12.707031 0.30078125 L 12.5 0.09375 z M 6 1 L 1 15 L 3.5 15 L 4.5625 12 L 9.4375 12 L 10.5 15 L 13.28125 15 L 8 1 L 6 1 z M 7 5 L 8.75 10 L 5.25 10 L 7 5 z" transform="translate(3 3)"/>
</svg>
